assets/icons/message.svg

<svg width="24" height="25" viewBox="0 0 24 25" fill="none" xmlns="http://www.w3.org/2000/svg">
<path d="M21.4286 10.8775C21.4286 6.67962 17.7727 3.20915 13.1708 3.20899C8.6341 3.20899 5.01829 6.58159 4.9163 10.6989C5.7029 10.3484 6.57706 10.1566 7.50001 10.1565C10.8186 10.1565 13.5714 12.6762 13.5714 15.8675C13.5714 16.8338 13.3112 17.7443 12.856 18.5405L13.1708 18.546L13.2467 18.5516C13.3225 18.5618 13.3958 18.5871 13.4621 18.6264L17.6529 21.1164L17.6563 21.1186L17.7132 21.1476C17.9976 21.2668 18.3334 21.0397 18.2935 20.6978L17.9029 17.5371C17.8772 17.3275 17.97 17.1204 18.1429 16.9992C20.1454 15.5953 21.4286 13.3729 21.4286 10.8775ZM22.5714 10.8775C22.5714 13.6603 21.196 16.1214 19.0781 17.7268L19.4275 20.5572V20.5594L19.4375 20.6789C19.4968 21.908 18.1578 22.7541 17.0681 22.0974V22.0985L13.0089 19.6856C12.5798 19.6793 12.1579 19.6506 11.7433 19.594C11.5364 19.5658 11.3614 19.4264 11.2868 19.2313C11.2124 19.0364 11.25 18.8166 11.3851 18.6577C12.043 17.8841 12.4286 16.913 12.4286 15.8675C12.4285 13.3789 10.2614 11.2994 7.50001 11.2994C6.58143 11.2995 5.73072 11.5275 4.99889 11.9322L4.69197 12.1164C4.52657 12.224 4.31722 12.2389 4.1384 12.1554C3.98197 12.0823 3.8677 11.9431 3.8259 11.7782L3.81251 11.7056C3.77895 11.426 3.76898 11.1518 3.76898 10.8775C3.76901 5.97553 8.01284 2.06613 13.1708 2.06613C18.3285 2.0663 22.5714 5.97563 22.5714 10.8775Z" fill="#111111"/>
<path d="M12.4286 15.8672C12.4284 13.3787 10.2613 11.2991 7.50002 11.2991C6.45003 11.2991 5.48844 11.5971 4.69198 12.1161L4.68752 12.1194C3.39697 12.944 2.57158 14.3197 2.57145 15.8672C2.57145 17.3439 3.32621 18.6652 4.52569 19.4978C4.67886 19.6041 4.76909 19.7777 4.77122 19.9609L4.76676 20.0391L4.51676 22.0033L4.51787 22.0045C4.51626 22.0183 4.51843 22.0256 4.52122 22.0313C4.52512 22.039 4.53265 22.049 4.54466 22.0569C4.55673 22.0648 4.56736 22.0667 4.57256 22.067C4.57496 22.0671 4.58033 22.0671 4.59154 22.0603L4.59823 22.0558L7.20872 20.5067L7.2768 20.4721C7.34722 20.4422 7.42299 20.4263 7.50002 20.4263C9.09377 20.4263 10.5008 19.7292 11.3795 18.6641L11.3851 18.6574L11.6183 18.3583C12.133 17.6399 12.4286 16.7821 12.4286 15.8672ZM13.5714 15.8672C13.5714 17.1986 13.0788 18.4252 12.2601 19.3906L12.2612 19.3917C11.1911 20.6888 9.52373 21.5175 7.66296 21.5636L5.18194 23.0391L5.18082 23.0379C4.32064 23.558 3.26943 22.8344 3.38283 21.8705V21.8661L3.59042 20.2277C2.27165 19.1919 1.42859 17.6272 1.42859 15.8672C1.42873 13.8968 2.48126 12.1741 4.0681 11.1585L4.44533 10.9319C5.34723 10.4332 6.38866 10.1562 7.50002 10.1562C10.8185 10.1562 13.5712 12.676 13.5714 15.8672Z" fill="#111111"/>
</svg>

<svg xmlns="http://www.w3.org/2000/svg" width="24" height="25" fill="none" viewBox="0 0 24 25"><path fill="#111" d="M21.429 10.878c0-4.198-3.656-7.669-8.258-7.669-4.537 0-8.153 3.373-8.255 7.49a6.3 6.3 0 0 1 2.584-.543c3.319 0 6.071 2.52 6.071 5.711 0 .967-.26 1.877-.715 2.674l.315.005.076.006q.114.015.215.074l4.19 2.49.004.003.057.029a.424.424 0 0 0 .58-.45l-.39-3.16a.57.57 0 0 1 .24-.539c2.002-1.404 3.286-3.626 3.286-6.121m1.142 0c0 2.782-1.375 5.243-3.493 6.849l.35 2.83v.002l.01.12c.059 1.229-1.28 2.075-2.37 1.418v.002l-4.06-2.413c-.428-.007-.85-.035-1.265-.092a.572.572 0 0 1-.358-.936 4.3 4.3 0 0 0 1.044-2.79c0-2.49-2.168-4.569-4.929-4.569-.919 0-1.77.229-2.501.633l-.307.184a.572.572 0 0 1-.866-.338l-.013-.072a7 7 0 0 1-.044-.828c0-4.902 4.244-8.812 9.402-8.812s9.4 3.91 9.4 8.811"/><path fill="#111" d="M12.429 15.867c0-2.488-2.168-4.568-4.929-4.568-1.05 0-2.012.298-2.808.817l-.004.003c-1.291.825-2.116 2.2-2.117 3.748 0 1.477.755 2.798 1.955 3.63.153.107.243.28.245.464l-.004.078-.25 1.964v.002a.04.04 0 0 0 .004.026.07.07 0 0 0 .052.036q.002.002.019-.007l.006-.004 2.61-1.55.069-.034a.6.6 0 0 1 .223-.046c1.594 0 3-.697 3.88-1.762l.005-.007.233-.299a4.26 4.26 0 0 0 .81-2.49m1.142 0a5.43 5.43 0 0 1-1.31 3.524c-1.07 1.298-2.737 2.127-4.598 2.173L5.181 23.04l-.001-.001c-.86.52-1.912-.204-1.798-1.168v-.004l.207-1.638c-1.318-1.036-2.161-2.6-2.161-4.36 0-1.971 1.052-3.694 2.64-4.71l.376-.226a6.3 6.3 0 0 1 3.055-.776c3.319 0 6.071 2.52 6.071 5.711"/></svg>
